svg/emoji_u1f513.svg

<svg enable-background="new 0 0 128 128" viewBox="0 0 128 128" xmlns="http://www.w3.org/2000/svg" xmlns:xlink="http://www.w3.org/1999/xlink"><path d="M72.84,73.74h0.72c5.22,0,9.46-4.23,9.46-9.46V28.22c0-5.35-4.38-9.73-9.73-9.73H54.55 c-5.26,0-9.57,4.31-9.57,9.57v10.65c0,2.01-1.63,3.64-3.64,3.64h-7.22c-2.01,0-3.64-1.63-3.64-3.64V28.22 C30.49,14.9,41.39,4,54.71,4h18.86c13.23,0,23.95,10.72,23.95,23.95v36.12c0,13.29-10.87,24.16-24.16,24.16h-0.51V73.74z" fill="#BDBDBD"/><g opacity=".2"><path d="m73.56 7c11.55 0 20.95 9.4 20.95 20.95v36.12c0 10.83-8.17 19.78-18.67 21.02v-8.55c5.79-1.07 10.18-6.16 10.18-12.25v-36.07c0-7.02-5.71-12.73-12.73-12.73h-18.74c-6.93 0-12.57 5.64-12.57 12.57v10.65c0 0.35-0.28 0.64-0.64 0.64h-7.22c-0.35 0-0.63-0.28-0.63-0.64v-10.49c0-11.7 9.52-21.22 21.22-21.22h18.85m0-3h-18.85c-13.32 0-24.22 10.9-24.22 24.22v10.49c0 2.01 1.63 3.64 3.63 3.64h7.22c2.01 0 3.64-1.63 3.64-3.64v-10.65c0-5.26 4.31-9.57 9.57-9.57h18.74c5.35 0 9.73 4.38 9.73 9.73v36.07c0 5.22-4.23 9.46-9.46 9.46h-0.72v14.49h0.51c13.29 0 24.16-10.87 24.16-24.16v-36.13c0-13.23-10.72-23.95-23.95-23.95z" fill="#424242"/></g><linearGradient id="c" x1="64" x2="64" y1="122.93" y2="54.974" gradientUnits="userSpaceOnUse"><stop stop-color="#FFA000" offset=".0053611"/><stop stop-color="#FFC107" offset="1"/></linearGradient><path d="m100.11 124h-72.22c-4.04 0-7.32-3.28-7.32-7.32v-54.63c0-4.04 3.28-7.32 7.32-7.32h72.21c4.04 0 7.32 3.28 7.32 7.32v54.64c0 4.03-3.27 7.31-7.31 7.31z" fill="url(#c)"/><g opacity=".2"><path d="m100.11 57.73c2.38 0 4.32 1.94 4.32 4.32v54.64c0 2.38-1.94 4.32-4.32 4.32h-72.22c-2.38 0-4.32-1.94-4.32-4.32v-54.64c0-2.38 1.94-4.32 4.32-4.32h72.22m0-3h-72.22c-4.04 0-7.32 3.28-7.32 7.32v54.64c0 4.04 3.28 7.32 7.32 7.32h72.21c4.04 0 7.32-3.28 7.32-7.32v-54.64c0-4.04-3.27-7.32-7.31-7.32z" fill="#424242"/></g><g display="none"><g display="inline"><g opacity=".6"><circle cx="64" cy="64" r="28" fill="none" opacity=".61" stroke="#000" stroke-miterlimit="10" stroke-width=".2625"/><line x1="83.5" x2="83.5" y2="128" fill="none" opacity=".61" stroke="#000" stroke-miterlimit="10"/><line x1="43.5" x2="43.5" y2="128" fill="none" opacity=".61" stroke="#000" stroke-miterlimit="10"/><line x1="63.5" x2="63.5" y2="128" fill="none" opacity=".61" stroke="#000" stroke-miterlimit="10"/><line x1="128" y1="64.5" y2="64.5" fill="none" opacity=".61" stroke="#000" stroke-miterlimit="10"/><line x1="128" y1="44.5" y2="44.5" fill="none" opacity=".61" stroke="#000" stroke-miterlimit="10"/><line x1="128" y1="83.5" y2="83.5" fill="none" opacity=".61" stroke="#000" stroke-miterlimit="10"/><line x1="128" y1="128" fill="none" opacity=".61" stroke="#000" stroke-miterlimit="10" stroke-width=".25"/><line x2="128" y1="128" fill="none" opacity=".61" stroke="#000" stroke-miterlimit="10" stroke-width=".25"/><g opacity=".61"><path d="M64,4.26c32.94,0,59.74,26.8,59.74,59.74S96.94,123.74,64,123.74S4.26,96.94,4.26,64S31.06,4.26,64,4.26 M64,4 C30.86,4,4,30.86,4,64s26.86,60,60,60s60-26.86,60-60S97.14,4,64,4L64,4z"/></g><path d="m115.5 108.47c0 4.43-3.59 8.03-8.03 8.03h-87.94c-4.43 0-8.03-3.59-8.03-8.03v-87.94c0-4.43 3.59-8.03 8.03-8.03h87.94c4.43 0 8.03 3.59 8.03 8.03v87.94z" fill="none" opacity=".61" stroke="#000" stroke-miterlimit="10"/><path d="m107.5 116.5c0 4.42-3.58 8-8 8h-72c-4.42 0-8-3.58-8-8v-104c0-4.42 3.58-8 8-8h72c4.42 0 8 3.58 8 8v104z" fill="none" opacity=".61" stroke="#000" stroke-miterlimit="10"/><path d="M123.5,98.27c0,5.65-4.58,10.23-10.23,10.23H13.73 c-5.65,0-10.23-4.58-10.23-10.23V30.73c0-5.65,4.58-10.23,10.23-10.23h99.54c5.65,0,10.23,4.58,10.23,10.23V98.27z" fill="none" opacity=".61" stroke="#000" stroke-miterlimit="10"/></g><g opacity=".2"><defs><rect id="b" width="128" height="128" opacity=".2"/></defs><clipPath id="a"><use xlink:href="#b"/></clipPath><g clip-path="url(#a)"><g fill="none" stroke="#000" stroke-miterlimit="10"><line x1="-28.5" x2="-28.5" y1="160" y2="-32"/><line x1="-24.5" x2="-24.5" y1="160" y2="-32"/><line x1="-20.5" x2="-20.5" y1="160" y2="-32"/><line x1="-16.5" x2="-16.5" y1="160" y2="-32"/><line x1="-12.5" x2="-12.5" y1="160" y2="-32"/><line x1="-8.5" x2="-8.5" y1="160" y2="-32"/><line x1="-4.5" x2="-4.5" y1="160" y2="-32"/><line x1="-.5" x2="-.5" y1="160" y2="-32"/><line x1="3.5" x2="3.5" y1="160" y2="-32"/><line x1="7.5" x2="7.5" y1="160" y2="-32"/><line x1="11.5" x2="11.5" y1="160" y2="-32"/><line x1="15.5" x2="15.5" y1="160" y2="-32"/><line x1="19.5" x2="19.5" y1="160" y2="-32"/><line x1="23.5" x2="23.5" y1="160" y2="-32"/><line x1="27.5" x2="27.5" y1="160" y2="-32"/><line x1="31.5" x2="31.5" y1="160" y2="-32"/><line x1="35.5" x2="35.5" y1="160" y2="-32"/><line x1="39.5" x2="39.5" y1="160" y2="-32"/><line x1="43.5" x2="43.5" y1="160" y2="-32"/><line x1="47.5" x2="47.5" y1="160" y2="-32"/><line x1="51.5" x2="51.5" y1="160" y2="-32"/><line x1="55.5" x2="55.5" y1="160" y2="-32"/><line x1="59.5" x2="59.5" y1="160" y2="-32"/><line x1="63.5" x2="63.5" y1="160" y2="-32"/><line x1="67.5" x2="67.5" y1="160" y2="-32"/><line x1="71.5" x2="71.5" y1="160" y2="-32"/><line x1="75.5" x2="75.5" y1="160" y2="-32"/><line x1="79.5" x2="79.5" y1="160" y2="-32"/><line x1="83.5" x2="83.5" y1="160" y2="-32"/><line x1="87.5" x2="87.5" y1="160" y2="-32"/><line x1="91.5" x2="91.5" y1="160" y2="-32"/><line x1="95.5" x2="95.5" y1="160" y2="-32"/><line x1="99.5" x2="99.5" y1="160" y2="-32"/><line x1="103.5" x2="103.5" y1="160" y2="-32"/><line x1="107.5" x2="107.5" y1="160" y2="-32"/><line x1="111.5" x2="111.5" y1="160" y2="-32"/><line x1="115.5" x2="115.5" y1="160" y2="-32"/><line x1="119.5" x2="119.5" y1="160" y2="-32"/><line x1="123.5" x2="123.5" y1="160" y2="-32"/><line x1="127.5" x2="127.5" y1="160" y2="-32"/><line x1="131.5" x2="131.5" y1="160" y2="-32"/><line x1="135.5" x2="135.5" y1="160" y2="-32"/><line x1="136.5" x2="136.5" y1="166" y2="-26"/><line x1="143.5" x2="143.5" y1="160" y2="-32"/><line x1="147.5" x2="147.5" y1="160" y2="-32"/><line x1="151.5" x2="151.5" y1="160" y2="-32"/><line x1="155.5" x2="155.5" y1="160" y2="-32"/></g><g fill="none" stroke="#000" stroke-miterlimit="10"><line x1="-32" x2="160" y1="-27.5" y2="-27.5"/><line x1="-32" x2="160" y1="-23.5" y2="-23.5"/><line x1="-32" x2="160" y1="-19.5" y2="-19.5"/><line x1="-32" x2="160" y1="-15.5" y2="-15.5"/><line x1="-32" x2="160" y1="-11.5" y2="-11.5"/><line x1="-32" x2="160" y1="-7.5" y2="-7.5"/><line x1="-32" x2="160" y1="-3.5" y2="-3.5"/><line x1="-32" x2="160" y1=".5" y2=".5"/><line x1="-32" x2="160" y1="4.5" y2="4.5"/><line x1="-32" x2="160" y1="8.5" y2="8.5"/><line x1="-32" x2="160" y1="12.5" y2="12.5"/><line x1="-32" x2="160" y1="16.5" y2="16.5"/><line x1="-32" x2="160" y1="20.5" y2="20.5"/><line x1="-32" x2="160" y1="24.5" y2="24.5"/><line x1="-32" x2="160" y1="28.5" y2="28.5"/><line x1="-32" x2="160" y1="32.5" y2="32.5"/><line x1="-32" x2="160" y1="36.5" y2="36.5"/><line x1="-32" x2="160" y1="40.5" y2="40.5"/><line x1="-32" x2="160" y1="44.5" y2="44.5"/><line x1="-32" x2="160" y1="48.5" y2="48.5"/><line x1="-32" x2="160" y1="52.5" y2="52.5"/><line x1="-32" x2="160" y1="56.5" y2="56.5"/><line x1="-32" x2="160" y1="60.5" y2="60.5"/><line x1="-32" x2="160" y1="64.5" y2="64.5"/><line x1="-32" x2="160" y1="68.5" y2="68.5"/><line x1="-32" x2="160" y1="72.5" y2="72.5"/><line x1="-32" x2="160" y1="76.5" y2="76.5"/><line x1="-32" x2="160" y1="80.5" y2="80.5"/><line x1="-32" x2="160" y1="84.5" y2="84.5"/><line x1="-32" x2="160" y1="88.5" y2="88.5"/><line x1="-32" x2="160" y1="92.5" y2="92.5"/><line x1="-32" x2="160" y1="96.5" y2="96.5"/><line x1="-32" x2="160" y1="100.5" y2="100.5"/><line x1="-32" x2="160" y1="104.5" y2="104.5"/><line x1="-32" x2="160" y1="108.5" y2="108.5"/><line x1="-32" x2="160" y1="112.5" y2="112.5"/><line x1="-32" x2="160" y1="116.5" y2="116.5"/><line x1="-32" x2="160" y1="120.5" y2="120.5"/><line x1="-32" x2="160" y1="124.5" y2="124.5"/><line x1="-32" x2="160" y1="128.5" y2="128.5"/><line x1="-32" x2="160" y1="132.5" y2="132.5"/><line x1="-32" x2="160" y1="136.5" y2="136.5"/><line x1="-32" x2="160" y1="140.5" y2="140.5"/><line x1="-32" x2="160" y1="144.5" y2="144.5"/><line x1="-32" x2="160" y1="148.5" y2="148.5"/><line x1="-32" x2="160" y1="152.5" y2="152.5"/><line x1="-32" x2="160" y1="156.5" y2="156.5"/></g><path d="m160-32v192h-192v-192h192-192v192h192v-192z"/></g></g><g fill="#F44336"><rect width="4" height="128" opacity=".3"/><rect x="124" width="4" height="128" opacity=".3"/><rect transform="matrix(-1.837e-16 1 -1 -1.837e-16 66 -62)" x="62" y="-58" width="4" height="120" opacity=".3"/><rect transform="matrix(-1.837e-16 1 -1 -1.837e-16 190 62)" x="62" y="66" width="4" height="120" opacity=".3"/></g></g></g></svg>

<svg width="128" height="128" style="enable-background:new 0 0 128 128;" xmlns="http://www.w3.org/2000/svg" xmlns:xlink="http://www.w3.org/1999/xlink">
  <g id="Layer_1">
    <g>
      <path d="M72.84,73.74h0.72c5.22,0,9.46-4.23,9.46-9.46V28.22c0-5.35-4.38-9.73-9.73-9.73H54.55 c-5.26,0-9.57,4.31-9.57,9.57v10.65c0,2.01-1.63,3.64-3.64,3.64h-7.22c-2.01,0-3.64-1.63-3.64-3.64V28.22 C30.49,14.9,41.39,4,54.71,4h18.86c13.23,0,23.95,10.72,23.95,23.95v36.12c0,13.29-10.87,24.16-24.16,24.16h-0.51V73.74z" style="fill:#BDBDBD;"/>
      <g style="opacity:0.2;">
        <path d="M73.56,7c11.55,0,20.95,9.4,20.95,20.95v36.12c0,10.83-8.17,19.78-18.67,21.02v-8.55 c5.79-1.07,10.18-6.16,10.18-12.25V28.22c0-7.02-5.71-12.73-12.73-12.73H54.55c-6.93,0-12.57,5.64-12.57,12.57v10.65 c0,0.35-0.28,0.64-0.64,0.64h-7.22c-0.35,0-0.63-0.28-0.63-0.64V28.22C33.49,16.52,43.01,7,54.71,7H73.56 M73.56,4H54.71 C41.39,4,30.49,14.9,30.49,28.22v10.49c0,2.01,1.63,3.64,3.63,3.64h7.22c2.01,0,3.64-1.63,3.64-3.64V28.06 c0-5.26,4.31-9.57,9.57-9.57h18.74c5.35,0,9.73,4.38,9.73,9.73v36.07c0,5.22-4.23,9.46-9.46,9.46h-0.72v14.49h0.51 c13.29,0,24.16-10.87,24.16-24.16V27.95C97.51,14.72,86.79,4,73.56,4L73.56,4z" style="fill:#424242;"/>
      </g>
      <linearGradient id="SVGID_1_" gradientUnits="userSpaceOnUse" x1="64" x2="64" y1="122.9278" y2="54.9743">
        <stop offset="5.361129e-03" style="stop-color:#FFA000"/>
        <stop offset="1" style="stop-color:#FFC107"/>
      </linearGradient>
      <path d="M100.11,124H27.89c-4.04,0-7.32-3.28-7.32-7.32V62.05c0-4.04,3.28-7.32,7.32-7.32h72.21 c4.04,0,7.32,3.28,7.32,7.32v54.64C107.42,120.72,104.15,124,100.11,124z" style="fill:url(#SVGID_1_);"/>
      <g style="opacity:0.2;">
        <path d="M100.11,57.73c2.38,0,4.32,1.94,4.32,4.32v54.64c0,2.38-1.94,4.32-4.32,4.32H27.89 c-2.38,0-4.32-1.94-4.32-4.32V62.05c0-2.38,1.94-4.32,4.32-4.32H100.11 M100.11,54.73H27.89c-4.04,0-7.32,3.28-7.32,7.32v54.64 c0,4.04,3.28,7.32,7.32,7.32h72.21c4.04,0,7.32-3.28,7.32-7.32V62.05C107.42,58.01,104.15,54.73,100.11,54.73L100.11,54.73z" style="fill:#424242;"/>
      </g>
    </g>
  </g>
  <g id="Layer_2" style="display:none;">
    <g style="display:inline;">
      <g style="opacity:0.6;">
        <circle cx="64" cy="64" r="28" style="opacity:0.61;fill:none;stroke:#000000;stroke-width:0.2625;stroke-miterlimit:10;"/>
        <line style="opacity:0.61;fill:none;stroke:#000000;stroke-miterlimit:10;" x1="83.5" x2="83.5" y1="0" y2="128"/>
        <line style="opacity:0.61;fill:none;stroke:#000000;stroke-miterlimit:10;" x1="43.5" x2="43.5" y1="0" y2="128"/>
        <line style="opacity:0.61;fill:none;stroke:#000000;stroke-miterlimit:10;" x1="63.5" x2="63.5" y1="0" y2="128"/>
        <line style="opacity:0.61;fill:none;stroke:#000000;stroke-miterlimit:10;" x1="128" x2="0" y1="64.5" y2="64.5"/>
        <line style="opacity:0.61;fill:none;stroke:#000000;stroke-miterlimit:10;" x1="128" x2="0" y1="44.5" y2="44.5"/>
        <line style="opacity:0.61;fill:none;stroke:#000000;stroke-miterlimit:10;" x1="128" x2="0" y1="83.5" y2="83.5"/>
        <line style="opacity:0.61;fill:none;stroke:#000000;stroke-width:0.25;stroke-miterlimit:10;" x1="128" x2="0" y1="128" y2="0"/>
        <line style="opacity:0.61;fill:none;stroke:#000000;stroke-width:0.25;stroke-miterlimit:10;" x1="0" x2="128" y1="128" y2="0"/>
        <g style="opacity:0.61;">
          <path d="M64,4.26c32.94,0,59.74,26.8,59.74,59.74S96.94,123.74,64,123.74S4.26,96.94,4.26,64S31.06,4.26,64,4.26 M64,4 C30.86,4,4,30.86,4,64s26.86,60,60,60s60-26.86,60-60S97.14,4,64,4L64,4z"/>
        </g>
        <path d="M115.5,108.47c0,4.43-3.59,8.03-8.03,8.03H19.53 c-4.43,0-8.03-3.59-8.03-8.03V20.53c0-4.43,3.59-8.03,8.03-8.03h87.94c4.43,0,8.03,3.59,8.03,8.03V108.47z" style="opacity:0.61;fill:none;stroke:#000000;stroke-miterlimit:10;"/>
        <path d="M107.5,116.5c0,4.42-3.58,8-8,8h-72 c-4.42,0-8-3.58-8-8v-104c0-4.42,3.58-8,8-8h72c4.42,0,8,3.58,8,8V116.5z" style="opacity:0.61;fill:none;stroke:#000000;stroke-miterlimit:10;"/>
        <path d="M123.5,98.27c0,5.65-4.58,10.23-10.23,10.23H13.73 c-5.65,0-10.23-4.58-10.23-10.23V30.73c0-5.65,4.58-10.23,10.23-10.23h99.54c5.65,0,10.23,4.58,10.23,10.23V98.27z" style="opacity:0.61;fill:none;stroke:#000000;stroke-miterlimit:10;"/>
      </g>
      <g>
        <g style="opacity:0.2;">
          <defs>
            <rect id="SVGID_2_" height="128" style="opacity:0.2;" width="128" x="0"/>
          </defs>
          <clipPath id="SVGID_3_">
            <use style="overflow:visible;" xlink:href="#SVGID_2_"/>
          </clipPath>
          <g style="clip-path:url(#SVGID_3_);">
            <g>
              <line style="fill:none;stroke:#000000;stroke-miterlimit:10;" x1="-28.5" x2="-28.5" y1="160" y2="-32"/>
              <line style="fill:none;stroke:#000000;stroke-miterlimit:10;" x1="-24.5" x2="-24.5" y1="160" y2="-32"/>
              <line style="fill:none;stroke:#000000;stroke-miterlimit:10;" x1="-20.5" x2="-20.5" y1="160" y2="-32"/>
              <line style="fill:none;stroke:#000000;stroke-miterlimit:10;" x1="-16.5" x2="-16.5" y1="160" y2="-32"/>
              <line style="fill:none;stroke:#000000;stroke-miterlimit:10;" x1="-12.5" x2="-12.5" y1="160" y2="-32"/>
              <line style="fill:none;stroke:#000000;stroke-miterlimit:10;" x1="-8.5" x2="-8.5" y1="160" y2="-32"/>
              <line style="fill:none;stroke:#000000;stroke-miterlimit:10;" x1="-4.5" x2="-4.5" y1="160" y2="-32"/>
              <line style="fill:none;stroke:#000000;stroke-miterlimit:10;" x1="-0.5" x2="-0.5" y1="160" y2="-32"/>
              <line style="fill:none;stroke:#000000;stroke-miterlimit:10;" x1="3.5" x2="3.5" y1="160" y2="-32"/>
              <line style="fill:none;stroke:#000000;stroke-miterlimit:10;" x1="7.5" x2="7.5" y1="160" y2="-32"/>
              <line style="fill:none;stroke:#000000;stroke-miterlimit:10;" x1="11.5" x2="11.5" y1="160" y2="-32"/>
              <line style="fill:none;stroke:#000000;stroke-miterlimit:10;" x1="15.5" x2="15.5" y1="160" y2="-32"/>
              <line style="fill:none;stroke:#000000;stroke-miterlimit:10;" x1="19.5" x2="19.5" y1="160" y2="-32"/>
              <line style="fill:none;stroke:#000000;stroke-miterlimit:10;" x1="23.5" x2="23.5" y1="160" y2="-32"/>
              <line style="fill:none;stroke:#000000;stroke-miterlimit:10;" x1="27.5" x2="27.5" y1="160" y2="-32"/>
              <line style="fill:none;stroke:#000000;stroke-miterlimit:10;" x1="31.5" x2="31.5" y1="160" y2="-32"/>
              <line style="fill:none;stroke:#000000;stroke-miterlimit:10;" x1="35.5" x2="35.5" y1="160" y2="-32"/>
              <line style="fill:none;stroke:#000000;stroke-miterlimit:10;" x1="39.5" x2="39.5" y1="160" y2="-32"/>
              <line style="fill:none;stroke:#000000;stroke-miterlimit:10;" x1="43.5" x2="43.5" y1="160" y2="-32"/>
              <line style="fill:none;stroke:#000000;stroke-miterlimit:10;" x1="47.5" x2="47.5" y1="160" y2="-32"/>
              <line style="fill:none;stroke:#000000;stroke-miterlimit:10;" x1="51.5" x2="51.5" y1="160" y2="-32"/>
              <line style="fill:none;stroke:#000000;stroke-miterlimit:10;" x1="55.5" x2="55.5" y1="160" y2="-32"/>
              <line style="fill:none;stroke:#000000;stroke-miterlimit:10;" x1="59.5" x2="59.5" y1="160" y2="-32"/>
              <line style="fill:none;stroke:#000000;stroke-miterlimit:10;" x1="63.5" x2="63.5" y1="160" y2="-32"/>
              <line style="fill:none;stroke:#000000;stroke-miterlimit:10;" x1="67.5" x2="67.5" y1="160" y2="-32"/>
              <line style="fill:none;stroke:#000000;stroke-miterlimit:10;" x1="71.5" x2="71.5" y1="160" y2="-32"/>
              <line style="fill:none;stroke:#000000;stroke-miterlimit:10;" x1="75.5" x2="75.5" y1="160" y2="-32"/>
              <line style="fill:none;stroke:#000000;stroke-miterlimit:10;" x1="79.5" x2="79.5" y1="160" y2="-32"/>
              <line style="fill:none;stroke:#000000;stroke-miterlimit:10;" x1="83.5" x2="83.5" y1="160" y2="-32"/>
              <line style="fill:none;stroke:#000000;stroke-miterlimit:10;" x1="87.5" x2="87.5" y1="160" y2="-32"/>
              <line style="fill:none;stroke:#000000;stroke-miterlimit:10;" x1="91.5" x2="91.5" y1="160" y2="-32"/>
              <line style="fill:none;stroke:#000000;stroke-miterlimit:10;" x1="95.5" x2="95.5" y1="160" y2="-32"/>
              <line style="fill:none;stroke:#000000;stroke-miterlimit:10;" x1="99.5" x2="99.5" y1="160" y2="-32"/>
              <line style="fill:none;stroke:#000000;stroke-miterlimit:10;" x1="103.5" x2="103.5" y1="160" y2="-32"/>
              <line style="fill:none;stroke:#000000;stroke-miterlimit:10;" x1="107.5" x2="107.5" y1="160" y2="-32"/>
              <line style="fill:none;stroke:#000000;stroke-miterlimit:10;" x1="111.5" x2="111.5" y1="160" y2="-32"/>
              <line style="fill:none;stroke:#000000;stroke-miterlimit:10;" x1="115.5" x2="115.5" y1="160" y2="-32"/>
              <line style="fill:none;stroke:#000000;stroke-miterlimit:10;" x1="119.5" x2="119.5" y1="160" y2="-32"/>
              <line style="fill:none;stroke:#000000;stroke-miterlimit:10;" x1="123.5" x2="123.5" y1="160" y2="-32"/>
              <line style="fill:none;stroke:#000000;stroke-miterlimit:10;" x1="127.5" x2="127.5" y1="160" y2="-32"/>
              <line style="fill:none;stroke:#000000;stroke-miterlimit:10;" x1="131.5" x2="131.5" y1="160" y2="-32"/>
              <line style="fill:none;stroke:#000000;stroke-miterlimit:10;" x1="135.5" x2="135.5" y1="160" y2="-32"/>
              <line style="fill:none;stroke:#000000;stroke-miterlimit:10;" x1="136.5" x2="136.5" y1="166" y2="-26"/>
              <line style="fill:none;stroke:#000000;stroke-miterlimit:10;" x1="143.5" x2="143.5" y1="160" y2="-32"/>
              <line style="fill:none;stroke:#000000;stroke-miterlimit:10;" x1="147.5" x2="147.5" y1="160" y2="-32"/>
              <line style="fill:none;stroke:#000000;stroke-miterlimit:10;" x1="151.5" x2="151.5" y1="160" y2="-32"/>
              <line style="fill:none;stroke:#000000;stroke-miterlimit:10;" x1="155.5" x2="155.5" y1="160" y2="-32"/>
            </g>
            <g>
              <line style="fill:none;stroke:#000000;stroke-miterlimit:10;" x1="-32" x2="160" y1="-27.5" y2="-27.5"/>
              <line style="fill:none;stroke:#000000;stroke-miterlimit:10;" x1="-32" x2="160" y1="-23.5" y2="-23.5"/>
              <line style="fill:none;stroke:#000000;stroke-miterlimit:10;" x1="-32" x2="160" y1="-19.5" y2="-19.5"/>
              <line style="fill:none;stroke:#000000;stroke-miterlimit:10;" x1="-32" x2="160" y1="-15.5" y2="-15.5"/>
              <line style="fill:none;stroke:#000000;stroke-miterlimit:10;" x1="-32" x2="160" y1="-11.5" y2="-11.5"/>
              <line style="fill:none;stroke:#000000;stroke-miterlimit:10;" x1="-32" x2="160" y1="-7.5" y2="-7.5"/>
              <line style="fill:none;stroke:#000000;stroke-miterlimit:10;" x1="-32" x2="160" y1="-3.5" y2="-3.5"/>
              <line style="fill:none;stroke:#000000;stroke-miterlimit:10;" x1="-32" x2="160" y1="0.5" y2="0.5"/>
              <line style="fill:none;stroke:#000000;stroke-miterlimit:10;" x1="-32" x2="160" y1="4.5" y2="4.5"/>
              <line style="fill:none;stroke:#000000;stroke-miterlimit:10;" x1="-32" x2="160" y1="8.5" y2="8.5"/>
              <line style="fill:none;stroke:#000000;stroke-miterlimit:10;" x1="-32" x2="160" y1="12.5" y2="12.5"/>
              <line style="fill:none;stroke:#000000;stroke-miterlimit:10;" x1="-32" x2="160" y1="16.5" y2="16.5"/>
              <line style="fill:none;stroke:#000000;stroke-miterlimit:10;" x1="-32" x2="160" y1="20.5" y2="20.5"/>
              <line style="fill:none;stroke:#000000;stroke-miterlimit:10;" x1="-32" x2="160" y1="24.5" y2="24.5"/>
              <line style="fill:none;stroke:#000000;stroke-miterlimit:10;" x1="-32" x2="160" y1="28.5" y2="28.5"/>
              <line style="fill:none;stroke:#000000;stroke-miterlimit:10;" x1="-32" x2="160" y1="32.5" y2="32.5"/>
              <line style="fill:none;stroke:#000000;stroke-miterlimit:10;" x1="-32" x2="160" y1="36.5" y2="36.5"/>
              <line style="fill:none;stroke:#000000;stroke-miterlimit:10;" x1="-32" x2="160" y1="40.5" y2="40.5"/>
              <line style="fill:none;stroke:#000000;stroke-miterlimit:10;" x1="-32" x2="160" y1="44.5" y2="44.5"/>
              <line style="fill:none;stroke:#000000;stroke-miterlimit:10;" x1="-32" x2="160" y1="48.5" y2="48.5"/>
              <line style="fill:none;stroke:#000000;stroke-miterlimit:10;" x1="-32" x2="160" y1="52.5" y2="52.5"/>
              <line style="fill:none;stroke:#000000;stroke-miterlimit:10;" x1="-32" x2="160" y1="56.5" y2="56.5"/>
              <line style="fill:none;stroke:#000000;stroke-miterlimit:10;" x1="-32" x2="160" y1="60.5" y2="60.5"/>
              <line style="fill:none;stroke:#000000;stroke-miterlimit:10;" x1="-32" x2="160" y1="64.5" y2="64.5"/>
              <line style="fill:none;stroke:#000000;stroke-miterlimit:10;" x1="-32" x2="160" y1="68.5" y2="68.5"/>
              <line style="fill:none;stroke:#000000;stroke-miterlimit:10;" x1="-32" x2="160" y1="72.5" y2="72.5"/>
              <line style="fill:none;stroke:#000000;stroke-miterlimit:10;" x1="-32" x2="160" y1="76.5" y2="76.5"/>
              <line style="fill:none;stroke:#000000;stroke-miterlimit:10;" x1="-32" x2="160" y1="80.5" y2="80.5"/>
              <line style="fill:none;stroke:#000000;stroke-miterlimit:10;" x1="-32" x2="160" y1="84.5" y2="84.5"/>
              <line style="fill:none;stroke:#000000;stroke-miterlimit:10;" x1="-32" x2="160" y1="88.5" y2="88.5"/>
              <line style="fill:none;stroke:#000000;stroke-miterlimit:10;" x1="-32" x2="160" y1="92.5" y2="92.5"/>
              <line style="fill:none;stroke:#000000;stroke-miterlimit:10;" x1="-32" x2="160" y1="96.5" y2="96.5"/>
              <line style="fill:none;stroke:#000000;stroke-miterlimit:10;" x1="-32" x2="160" y1="100.5" y2="100.5"/>
              <line style="fill:none;stroke:#000000;stroke-miterlimit:10;" x1="-32" x2="160" y1="104.5" y2="104.5"/>
              <line style="fill:none;stroke:#000000;stroke-miterlimit:10;" x1="-32" x2="160" y1="108.5" y2="108.5"/>
              <line style="fill:none;stroke:#000000;stroke-miterlimit:10;" x1="-32" x2="160" y1="112.5" y2="112.5"/>
              <line style="fill:none;stroke:#000000;stroke-miterlimit:10;" x1="-32" x2="160" y1="116.5" y2="116.5"/>
              <line style="fill:none;stroke:#000000;stroke-miterlimit:10;" x1="-32" x2="160" y1="120.5" y2="120.5"/>
              <line style="fill:none;stroke:#000000;stroke-miterlimit:10;" x1="-32" x2="160" y1="124.5" y2="124.5"/>
              <line style="fill:none;stroke:#000000;stroke-miterlimit:10;" x1="-32" x2="160" y1="128.5" y2="128.5"/>
              <line style="fill:none;stroke:#000000;stroke-miterlimit:10;" x1="-32" x2="160" y1="132.5" y2="132.5"/>
              <line style="fill:none;stroke:#000000;stroke-miterlimit:10;" x1="-32" x2="160" y1="136.5" y2="136.5"/>
              <line style="fill:none;stroke:#000000;stroke-miterlimit:10;" x1="-32" x2="160" y1="140.5" y2="140.5"/>
              <line style="fill:none;stroke:#000000;stroke-miterlimit:10;" x1="-32" x2="160" y1="144.5" y2="144.5"/>
              <line style="fill:none;stroke:#000000;stroke-miterlimit:10;" x1="-32" x2="160" y1="148.5" y2="148.5"/>
              <line style="fill:none;stroke:#000000;stroke-miterlimit:10;" x1="-32" x2="160" y1="152.5" y2="152.5"/>
              <line style="fill:none;stroke:#000000;stroke-miterlimit:10;" x1="-32" x2="160" y1="156.5" y2="156.5"/>
            </g>
            <path d="M160-32v192H-32V-32H160 M160-32H-32v192h192V-32L160-32z"/>
          </g>
        </g>
        <g>
          <rect height="128" style="opacity:0.3;fill:#F44336;" width="4" x="0"/>
          <rect height="128" style="opacity:0.3;fill:#F44336;" width="4" x="124"/>
          <rect height="120" style="opacity:0.3;fill:#F44336;" transform="matrix(-1.836970e-16 1 -1 -1.836970e-16 66 -62)" width="4" x="62" y="-58"/>
          <rect height="120" style="opacity:0.3;fill:#F44336;" transform="matrix(-1.836970e-16 1 -1 -1.836970e-16 190 62)" width="4" x="62" y="66"/>
        </g>
      </g>
    </g>
  </g>
</svg>
